X: 169
T: No_79_Healing_Song.krn
N: Derived from No_79_Healing_Song.krn
%%abc-version 2.0
%%abcx-abcm2ps-target-version 5.9.1 (29 Sep 2008)
%%abc-creator hum2abc beta
%%abcx-conversion-date 2019/03/15 08:29:13
%%humdrum-veritas 1022065205
%%humdrum-veritas-data 2592246974
%%linebreak <none>
%%barnumbers 0
L: 1/8
M: 3/4
%%staves {1 2}
V: 1 clef=bass
V: 2 clef=bass
K: G
[V:1] [K:clef=bass][M:3/4]B,2B,B, B,G, ||  
[V:2] [K:clef=bass][M:3/4]G,,G,, G,,G,, G,,G,, ||  
[V:1] [M:4/4]B,2B,B, B,G,A,G, | 
[V:2] [M:4/4]z8 | 
[V:1] E,3/E,/E,2-E,4 ||  
[V:2] z8 ||  
[V:1] [M:3/4]A,G, E,F, G,E, | 
[V:2] [M:3/4]z6 | 
[V:1] G,F, E,F, G,E, ||  
[V:2] z6 ||  
[V:1] [M:2/4]B,,3/B,,/B,,2 ||  
[V:2] [M:2/4]z4 ||  
[V:1] [M:3/4]E,2D,E, E,B,, ||  
[V:2] [M:3/4]z6 ||  
[V:1] [M:2/4]B,,2A,,2 ||  
[V:2] [M:2/4]z4 ||  
[V:1] [M:3/4]B,,2G,,B,, B,,G,, | 
[V:2] [M:3/4]z6 | 
[V:1] B,,2A,,B,, B,,G,, ||  
[V:2] z6 ||  
[V:1] [M:2/4]E,,3/E,,/E,,2- | 
[V:2] [M:2/4]z4 | 
[V:1] E,,4 ||  
[V:2] z4 ||  
[V:1] [M:3/4]B,2B,B, B,G, ||  
[V:2] [M:3/4]z6 ||  
[V:1] [M:4/4]B,2B,B, B,G,(A,G,) | 
[V:2] [M:4/4]z8 | 
[V:1] E,3/E,/E,2-E,4 | 
[V:2] z8 | 
[V:1] (A,G,)E,F, G,E,E,3/^D,/ | 
[V:2] z8 | 
[V:1] E,2E,2B,,B,,B,,2 ||  
[V:2] z8 ||  
[V:1] [M:3/4]B,,2B,,B,, B,,G,, | 
[V:2] [M:3/4]z6 | 
[V:1] B,,2A,,B,, B,,G,, ||  
[V:2] z6 ||  
[V:1] [M:4/4]E,,3/E,,/E,,2-E,,4 ||  
[V:2] [M:4/4]z8 ||  
[V:1] [M:3/4]B,2B,B, B,G, ||  
[V:2] [M:3/4]z6 ||  
[V:1] [M:4/4]B,2B,B, B,G,A,G, | 
[V:2] [M:4/4]z8 | 
[V:1] E,3/E,/E,2-E,4 ||  
[V:2] z8 ||  
[V:1] [M:3/4]B,2B,B, B,G, ||  
[V:2] [M:3/4]z6 ||  
[V:1] [M:4/4]B,2B,B, B,G,A,G, | 
[V:2] [M:4/4]z8 | 
[V:1] E,3/E,/E,2-E,4 ||  
[V:2] z8 ||  
[V:1] [M:3/4]A,G, E,F, G,E, ||  
[V:2] [M:3/4]z6 ||  
[V:1] [M:4/4]A,G,E,F, G,E,E,^D, | 
[V:2] [M:4/4]z8 | 
[V:1] E,2E,2B,,B,,B,,2 ||  
[V:2] z8 ||  
[V:1] [M:3/4]B,,2B,,B,, B,,G,, | 
[V:2] [M:3/4]z6 | 
[V:1] B,,2A,,B,, B,,G,, ||  
[V:2] z6 ||  
[V:1] [M:4/4]E,,3/E,,/E,,2E,,4 |]  
[V:2] [M:4/4]z8 |]  



